web/img/icons/metraz2.svg

<svg xmlns="http://www.w3.org/2000/svg" xmlns:xlink="http://www.w3.org/1999/xlink" width="24" height="24" viewBox="0 0 24 24"><defs><style>.cls-1{fill:#c2c2c2;fill-rule:evenodd;filter:url(#filter)}</style><filter id="filter" x="0" y="0" width="24" height="24" filterUnits="userSpaceOnUse"><feImage preserveAspectRatio="none" width="24" height="24" result="image" xlink:href="data:image/svg+xml;base64,PHN2ZyB4bWxucz0iaHR0cDovL3d3dy53My5vcmcvMjAwMC9zdmciIHhtbG5zOnhsaW5rPSJodHRwOi8vd3d3LnczLm9yZy8xOTk5L3hsaW5rIiB3aWR0aD0iMjQiIGhlaWdodD0iMjQiIHZpZXdCb3g9IjAgMCAyNCAyNCI+CiAgPGRlZnM+CiAgICA8c3R5bGU+CiAgICAgIC5jbHMtMSB7CiAgICAgICAgZmlsbDogdXJsKCNsaW5lYXItZ3JhZGllbnQpOwogICAgICB9CiAgICA8L3N0eWxlPgogICAgPGxpbmVhckdyYWRpZW50IGlkPSJsaW5lYXItZ3JhZGllbnQiIHkxPSIyMS4zNzUiIHgyPSIyNCIgeTI9IjIuNjI1IiBncmFkaWVudFVuaXRzPSJ1c2VyU3BhY2VPblVzZSI+CiAgICAgIDxzdG9wIG9mZnNldD0iLTAuMjUiIHN0b3AtY29sb3I9IiNkNzgwMzQiLz4KICAgICAgPHN0b3Agb2Zmc2V0PSIxLjI1IiBzdG9wLWNvbG9yPSIjZmNiNzc0Ii8+CiAgICA8L2xpbmVhckdyYWRpZW50PgogIDwvZGVmcz4KICA8cmVjdCBjbGFzcz0iY2xzLTEiIHdpZHRoPSIyNCIgaGVpZ2h0PSIyNCIvPgo8L3N2Zz4K"/><feComposite result="composite" operator="in" in2="SourceGraphic"/><feBlend result="blend" in2="SourceGraphic"/></filter></defs><path id="PNG:ikona_-_metraż2" data-name="PNG:ikona - metraż2" class="cls-1" d="M0 1V0h24v1H0zm0 23v-1h24v1H0zM23 1h1v23h-1V1zM0 1h1v23H0V1zm8 13H6V6h2v8zm6 0h-1V6h1v8zM6 7V6h8v1H6zm0 7v-1h5v1H6zm5 4h-1v-8h1v8zm7 0h-2v-8h2v8zm-5-7v-1h5v1h-5zm-3 7v-1h8v1h-8z"/></svg>

<svg xmlns="http://www.w3.org/2000/svg" xmlns:xlink="http://www.w3.org/1999/xlink" width="24" height="24" viewBox="0 0 24 24">
  <metadata><?xpacket begin="﻿" id="W5M0MpCehiHzreSzNTczkc9d"?>
<x:xmpmeta xmlns:x="adobe:ns:meta/" x:xmptk="Adobe XMP Core 5.6-c138 79.159824, 2016/09/14-01:09:01        ">
   <rdf:RDF xmlns:rdf="http://www.w3.org/1999/02/22-rdf-syntax-ns#">
      <rdf:Description rdf:about=""/>
   </rdf:RDF>
</x:xmpmeta>
                                                                                                    
                                                                                                    
                                                                                                    
                                                                                                    
                                                                                                    
                                                                                                    
                                                                                                    
                                                                                                    
                                                                                                    
                                                                                                    
                                                                                                    
                                                                                                    
                                                                                                    
                                                                                                    
                                                                                                    
                                                                                                    
                                                                                                    
                                                                                                    
                                                                                                    
                                                                                                    
                           
<?xpacket end="w"?></metadata>
<defs>
    <style>
      .cls-1 {
        fill: #c2c2c2;
        fill-rule: evenodd;
        filter: url(#filter);
      }
    </style>
    <filter id="filter" x="0" y="0" width="24" height="24" filterUnits="userSpaceOnUse">
      <feImage preserveAspectRatio="none" x="0" y="0" width="24" height="24" result="image" xlink:href="data:image/svg+xml;base64,PHN2ZyB4bWxucz0iaHR0cDovL3d3dy53My5vcmcvMjAwMC9zdmciIHhtbG5zOnhsaW5rPSJodHRwOi8vd3d3LnczLm9yZy8xOTk5L3hsaW5rIiB3aWR0aD0iMjQiIGhlaWdodD0iMjQiIHZpZXdCb3g9IjAgMCAyNCAyNCI+CiAgPGRlZnM+CiAgICA8c3R5bGU+CiAgICAgIC5jbHMtMSB7CiAgICAgICAgZmlsbDogdXJsKCNsaW5lYXItZ3JhZGllbnQpOwogICAgICB9CiAgICA8L3N0eWxlPgogICAgPGxpbmVhckdyYWRpZW50IGlkPSJsaW5lYXItZ3JhZGllbnQiIHkxPSIyMS4zNzUiIHgyPSIyNCIgeTI9IjIuNjI1IiBncmFkaWVudFVuaXRzPSJ1c2VyU3BhY2VPblVzZSI+CiAgICAgIDxzdG9wIG9mZnNldD0iLTAuMjUiIHN0b3AtY29sb3I9IiNkNzgwMzQiLz4KICAgICAgPHN0b3Agb2Zmc2V0PSIxLjI1IiBzdG9wLWNvbG9yPSIjZmNiNzc0Ii8+CiAgICA8L2xpbmVhckdyYWRpZW50PgogIDwvZGVmcz4KICA8cmVjdCBjbGFzcz0iY2xzLTEiIHdpZHRoPSIyNCIgaGVpZ2h0PSIyNCIvPgo8L3N2Zz4K"/>
      <feComposite result="composite" operator="in" in2="SourceGraphic"/>
      <feBlend result="blend" in2="SourceGraphic"/>
    </filter>
  </defs>
  <path id="PNG:ikona_-_metraż2" data-name="PNG:ikona - metraż2" class="cls-1" d="M0,1V0H24V1H0ZM0,24V23H24v1H0ZM23,1h1V24H23V1ZM0,1H1V24H0V1ZM8,14H6V6H8v8Zm6,0H13V6h1v8ZM6,7V6h8V7H6Zm0,7V13h5v1H6Zm5,4H10V10h1v8Zm7,0H16V10h2v8Zm-5-7V10h5v1H13Zm-3,7V17h8v1H10Z"/>
</svg>
